apps/web/src/assets/svgs/cursor.svg

<?xml version="1.0" encoding="UTF-8" standalone="no"?>
<!-- Created with Inkscape (http://www.inkscape.org/) -->

<svg
   width="8mm"
   height="8mm"
   viewBox="0 0 8 8"
   version="1.1"
   id="svg1"
   sodipodi:docname="cursor_flat.svg"
   inkscape:version="1.3.2 (091e20ef0f, 2023-11-25)"
   xmlns:inkscape="http://www.inkscape.org/namespaces/inkscape"
   xmlns:sodipodi="http://sodipodi.sourceforge.net/DTD/sodipodi-0.dtd"
   xmlns="http://www.w3.org/2000/svg"
   xmlns:svg="http://www.w3.org/2000/svg">
  <sodipodi:namedview
     id="namedview1"
     pagecolor="#ffffff"
     bordercolor="#000000"
     borderopacity="0.25"
     inkscape:showpageshadow="2"
     inkscape:pageopacity="0.0"
     inkscape:pagecheckerboard="0"
     inkscape:deskcolor="#d1d1d1"
     inkscape:document-units="mm"
     inkscape:zoom="14.870906"
     inkscape:cx="21.047809"
     inkscape:cy="20.375355"
     inkscape:window-width="2560"
     inkscape:window-height="1515"
     inkscape:window-x="0"
     inkscape:window-y="1415"
     inkscape:window-maximized="1"
     inkscape:current-layer="layer1" />
  <defs
     id="defs1" />
  <g
     inkscape:label="Capa 1"
     inkscape:groupmode="layer"
     id="layer1"
     transform="translate(-189.56165,-113.14109)">
    <g
       id="g493-1"
       transform="rotate(-45,232.41341,-23.771598)">
      <path
         id="path492-5"
         style="color:#000000;fill:#000000;stroke-linecap:round;stroke-linejoin:round;-inkscape-stroke:none"
         d="M 105.51488 44.299812 A 0.30003001 0.30003001 0 0 0 105.30075 44.210653 A 0.30003001 0.30003001 0 0 0 105.02158 44.398472 L 102.79698 49.945359 A 0.30003001 0.30003001 0 0 0 103.19929 50.330133 L 105.00002 49.516736 L 105.00002 52.222944 A 0.30000001 0.30000001 0 0 0 105.30075 52.523675 A 0.30000001 0.30000001 0 0 0 105.60185 52.222579 L 105.60148 49.516736 L 107.40221 50.330133 A 0.30003001 0.30003001 0 0 0 107.80452 49.945359 L 105.57992 44.398472 A 0.30003001 0.30003001 0 0 0 105.51488 44.299812 z M 105.30075 45.318569 L 106.97103 49.476541 L 105.42389 48.777151 A 0.30003001 0.30003001 0 0 0 105.17761 48.777151 L 103.6312 49.476541 L 105.30075 45.318569 z " />
    </g>
  </g>
</svg>

<svg xmlns="http://www.w3.org/2000/svg" width="8mm" height="8mm" viewBox="0 0 8 8"><path d="M105.515 44.3a.3.3 0 0 0-.214-.09.3.3 0 0 0-.28.188l-2.224 5.547a.3.3 0 0 0 .402.385l1.801-.813v2.706a.3.3 0 0 0 .3.3.3.3 0 0 0 .302-.3v-2.706l1.8.813a.3.3 0 0 0 .403-.385l-2.225-5.547a.3.3 0 0 0-.065-.098m-.214 1.019 1.67 4.158-1.547-.7a.3.3 0 0 0-.246 0l-1.547.7z" style="color:#000;fill:#000;stroke-linecap:round;stroke-linejoin:round;-inkscape-stroke:none" transform="rotate(-45 1.06 148.479)"/></svg>
